desc:Loudness Basic

slider1:60<40,90,1>Listening Level (dB SPL)
slider2:0<-20,20,0.1>Output Gain (dB)
slider3:1<0,1,1{Off,On}>Enable

@init
gain = 1.0;

@slider
gain = 10^(slider2/20);

@sample
slider3 > 0.5 ? (
  spl0 = spl0 * gain;
  spl1 = spl1 * gain;
);