desc: Loudness Fixed

@init
gain = 1.0;

@sample
// Fixed loudness compensation
// 60dB listening -> 83dB reference = 23dB difference
// Apply moderate compensation
compensation = 2.3; // 23dB * 0.1 
gain = 10^(compensation/20);

spl0 *= gain;
spl1 *= gain;