desc: Loudness Gain Simple

slider1:0<-30,30,1>Gain (dB)

@init
DB_2_LOG = 0.11512925464970228420089957273422;
gainLin = 1;

@slider
gainLin = exp(slider1 * DB_2_LOG);

@sample
spl0 = spl0 * gainLin;
spl1 = spl1 * gainLin;