desc: Gain Test
//tags: gain

dB:0<-30,30,1>Volume gain (dB)

@init
dB = 0;
DB_2_LOG = 0.11512925464970228420089957273422;
gainLin = exp(dB * DB_2_LOG);

@slider
dB = slider1;
gainLin = exp(dB * DB_2_LOG);

@sample
spl0 = spl0 * gainLin;
spl1 = spl1 * gainLin;